X:381
T:Kaleidoscope
C:Colin Hume, 1990
L:1/4
M:2/2
S:Colin Hume's website,  colinhume.com  - chords can also be printed below the stave.
Q:1/2=112
K:D
P:A
|: "D"A/G/F/E/ "D7"DA | "G"B2 "D/F#"A2 | "Em"B/A/G/F/ "E7"EB | "A"c2- "A7"cd/e/ |\
"D"fd "A7/C#"ec | "Bm"dB "F#m/A"cA | "G"B/c/d/e/ "E7"fd | "A7"e2 "D"d2 :|
P:B
K:G
|: "G"B3/A/ "/"GB | "D"AD- "/"DB | "Am"cE "A7"FG | "D"A2- "D7"AD |\
"G"dB/A/ "G7"G2 | "C"ec/B/ "Am"A2 | "D7"f3/e/ "/"dc | "D7"BA "G"G2 :|

